**kern	**silbe	**kern	**silbe	**harmony	**phrase	**leadinstrument	**rhyme	**timestamp	**harte
*ICvox	*	*ICvox	*	*M4/4	*	*	*	*	*M4/4
*VRlead	*	*VRbacking	*	*	*	*	*	*	*
*Hstimme	*	*Nstimme	*	*	*	*	*	*	*
*G:	*	*G:	*	*G:	*	*	*	*	*G:
*M4/4	*	*M4/4	*	*	*	*	*	*	*
*clefF4	*	*clefF4	*	*	*	*	*	*	*
r;	.	1r	.	1r;	.	r	.	0	N.C.
=1	=1	=1	=1	=1	=1	=1	=1	=1	=1
*>Letter>A	*>Letter>A	*>Letter>A	*>Letter>A	*>Letter>A	*>Letter>A	*>Letter>A	*>Letter>A	*>Letter>A	*>Letter>A
*>Label>Intro	*>Label>Intro	*>Label>Intro	*>Label>Intro	*>Label>Intro	*>Label>Intro	*>Label>Intro	*>Label>Intro	*>Label>Intro	*>Label>Intro
1r	.	4r	.	1DMm	newline	r	.	0.488	D:7
.	.	4D 4c 4d	Woo,	.	.	.	.	.	.
.	.	4D 4c 4d	woo!	.	.	.	.	.	.
.	.	8D 8A 8c	_	.	.	.	.	.	.
.	.	8D 8F# 8A	_	.	.	.	.	.	.
=2	=2	=2	=2	=2	=2	=2	=2	=2	=2
8.r	.	1r	.	1N	.	r	.	2.014	N.C.
16F#	You	.	.	.	.	.	.	.	.
16A	know,	.	.	.	.	.	.	.	.
16F#	I'm	.	.	.	.	.	.	.	.
[8c	al	.	.	.	.	.	.	.	.
8c]	_	.	.	.	.	.	.	.	.
[8e	most	.	.	.	.	.	.	.	.
8e]	_	.	.	.	.	.	.	.	.
8f#	grown!	.	.	.	.	.	A	.	.
=3	=3	=3	=3	=3	=3	=3	=3	=3	=3
4c	_	4r	.	1N	.	r	.	3.54	N.C.
4r	.	4D 4c 4d	Woo,	.	.	.	.	.	.
2r	.	4D 4c 4d	woo!	.	.	.	.	.	.
.	.	8D 8A 8c	_	.	.	.	.	.	.
.	.	8D 8F# 8A	_	.	.	.	.	.	.
=4	=4	=4	=4	=4	=4	=4	=4	=4	=4
8r	.	1r	.	1N	.	r	.	5.066	N.C.
16r	.	.	.	.	.	.	.	.	.
16c	Yeah	.	.	.	.	.	.	.	.
16c	and	.	.	.	.	.	.	.	.
8c	I'm	.	.	.	.	.	.	.	.
16c	do-	.	.	.	.	.	.	.	.
16c	-in'	.	.	.	.	.	.	.	.
16c	al-	.	.	.	.	.	.	.	.
8c	-right	.	.	.	.	.	.	.	.
16c	in	.	.	.	.	.	.	.	.
16c	school!	.	.	.	.	.	B	.	.
[8d	_	.	.	.	.	.	.	.	.
=5	=5	=5	=5	=5	=5	=5	=5	=5	=5
*>Letter>B	*>Letter>B	*>Letter>B	*>Letter>B	*>Letter>B	*>Letter>B	*>Letter>B	*>Letter>B	*>Letter>B	*>Letter>B
*>Label>Verse	*>Label>Verse	*>Label>Verse	*>Label>Verse	*>Label>Verse	*>Label>Verse	*>Label>Verse	*>Label>Verse	*>Label>Verse	*>Label>Verse
4d]	_	4r	.	1GMm	newline	voice	.	6.593	G:7
4r	.	[4B [4d [4g	Hi	.	.	.	.	.	.
2r	.	4B] 4d] 4g]	_	.	.	.	.	.	.
.	.	8A 8c 8e	de-	.	.	.	.	.	.
.	.	8G 8B 8d	-way!	.	.	.	.	.	.
=6	=6	=6	=6	=6	=6	=6	=6	=6	=6
8r	.	4r	.	1GMm	.	voice	.	8.134	G:7
8d	They	.	.	.	.	.	.	.	.
8~B	ain't	8r	.	.	.	.	.	.	.
8c	said	8B 8d	Woo,	.	.	.	.	.	.
6B	I	4r	.	.	.	.	.	.	.
6c	broke	.	.	.	.	.	.	.	.
.	.	4B 4d	woo!	.	.	.	.	.	.
6~B	no	.	.	.	.	.	.	.	.
=7	=7	=7	=7	=7	=7	=7	=7	=7	=7
16c	rule!	4r	.	1GMm	.	voice	B	9.675	G:7
8.d	_	.	.	.	.	.	.	.	.
4r	.	[4B [4d [4g	Hi	.	.	.	.	.	.
2r	.	4B] 4d] 4g]	_	.	.	.	.	.	.
.	.	8A 8c 8e	de-	.	.	.	.	.	.
.	.	8G 8B 8d	-way!	.	.	.	.	.	.
=8	=8	=8	=8	=8	=8	=8	=8	=8	=8
8r	.	4r	.	1GMm	.	voice	.	11.216	G:7
8g	I	.	.	.	.	.	.	.	.
8~d-	ain't	8r	.	.	.	.	.	.	.
8c	ne-	8B 8d	Woo,	.	.	.	.	.	.
8~B	-ver	4r	.	.	.	.	.	.	.
8c	been	.	.	.	.	.	.	.	.
8~B	in	4B 4d	woo!	.	.	.	.	.	.
[8c	Dutch!	.	.	.	.	.	C	.	.
=9	=9	=9	=9	=9	=9	=9	=9	=9	=9
4c]	_	4r	.	1CMm	newline	voice	.	12.756	C:7
4r	.	[4B- [4d [4g	Hi	.	.	.	.	.	.
2r	.	4B-] 4d] 4g]	_	.	.	.	.	.	.
.	.	8A 8c 8e	de-	.	.	.	.	.	.
.	.	8G 8B- 8d	-way!	.	.	.	.	.	.
=10	=10	=10	=10	=10	=10	=10	=10	=10	=10
8r	.	4r	.	1CMm	.	voice	.	14.297	C:7
8d-	I	.	.	.	.	.	.	.	.
8.c	don't	8r	.	.	.	.	.	.	.
.	.	8B- 8d	Woo,	.	.	.	.	.	.
[16c	browse	.	.	.	.	.	.	.	.
16c]	_	4r	.	.	.	.	.	.	.
16B-	a-	.	.	.	.	.	.	.	.
[8c	-round	.	.	.	.	.	.	.	.
8c]	_	4B- 4d	woo!	.	.	.	.	.	.
8B	too	.	.	.	.	.	.	.	.
=11	=11	=11	=11	=11	=11	=11	=11	=11	=11
16c	much!	4r	.	1GMm	.	voice	C	15.837	G:7
8.d	_	.	.	.	.	.	.	.	.
2.r	.	[4B [4d [4g	Hi	.	.	.	.	.	.
.	.	4B] 4d] 4g]	_	.	.	.	.	.	.
.	.	8A 8c 8e	de-	.	.	.	.	.	.
.	.	8G 8B 8d	-way!	.	.	.	.	.	.
=12	=12	=12	=12	=12	=12	=12	=12	=12	=12
8r	.	4r	.	1GMm	.	voice	.	17.378	G:7
[8g	Don't	.	.	.	.	.	.	.	.
8.g]	_	8r	.	.	.	.	.	.	.
.	.	8B 8d	Woo,	.	.	.	.	.	.
[16c	bo	.	.	.	.	.	.	.	.
16c]	_	4r	.	.	.	.	.	.	.
16c	ther	.	.	.	.	.	.	.	.
16B	me,	.	.	.	.	.	.	.	.
[16c	leave	.	.	.	.	.	.	.	.
16c]	_	4B 4d	woo!	.	.	.	.	.	.
16c	me	.	.	.	.	.	.	.	.
16B	a-	.	.	.	.	.	.	.	.
[16c	-lone!	.	.	.	.	.	A	.	.
=13	=13	=13	=13	=13	=13	=13	=13	=13	=13
16c]	_	4r	.	1DMm	newline	voice	.	18.918	D:7
8.d	_	.	.	.	.	.	.	.	.
4r	.	4B 4d	Ha,	.	.	.	.	.	.
2r	.	4B 4d 4f#	woo,	.	.	.	.	.	.
.	.	8B 8d 8f#	woo!	.	.	.	.	.	.
.	.	8A 8c 8e	_	.	.	.	.	.	.
=14	=14	=14	=14	=14	=14	=14	=14	=14	=14
8r	.	4r	.	1CMm	.	voice	.	20.455	C:7
16f	A-	.	.	.	.	.	.	.	.
16d	-ny-	.	.	.	.	.	.	.	.
8.c	-way,	8r	.	.	.	.	.	.	.
.	.	8B- 8d	Woo,	.	.	.	.	.	.
[16c	I'm	.	.	.	.	.	.	.	.
8c]	_	4r	.	.	.	.	.	.	.
[8c	al	.	.	.	.	.	.	.	.
16c]	_	4B- 4d	woo!	.	.	.	.	.	.
8.c	most	.	.	.	.	.	.	.	.
=15	=15	=15	=15	=15	=15	=15	=15	=15	=15
8c	grown!	4r	.	1GMm	.	voice	A	21.991	G:7
8d	_	.	.	.	.	.	.	.	.
4r	.	[4B [4d [4g	Hi	.	.	.	.	.	.
2r	.	4B] 4d] 4g]	_	.	.	.	.	.	.
.	.	4A 4c 4e	de-	.	.	.	.	.	.
=16	=16	=16	=16	=16	=16	=16	=16	=16	=16
8r	.	4G 4B 4d	-way!	1GMm	.	voice	.	23.527	G:7
16r	.	.	.	.	.	.	.	.	.
16~d	I	.	.	.	.	.	.	.	.
8~B	don't	4r	.	.	.	.	.	.	.
16c	run	.	.	.	.	.	.	.	.
16B	a-	.	.	.	.	.	.	.	.
8c	-round	2r	.	.	.	.	.	.	.
16B	with	.	.	.	.	.	.	.	.
[16c	no	.	.	.	.	.	.	.	.
16c]	_	.	.	.	.	.	.	.	.
16c	mob!	.	.	.	.	.	D	.	.
8d	_	.	.	.	.	.	.	.	.
=17	=17	=17	=17	=17	=17	=17	=17	=17	=17
*>Letter>B	*>Letter>B	*>Letter>B	*>Letter>B	*>Letter>B	*>Letter>B	*>Letter>B	*>Letter>B	*>Letter>B	*>Letter>B
*>Label>Verse	*>Label>Verse	*>Label>Verse	*>Label>Verse	*>Label>Verse	*>Label>Verse	*>Label>Verse	*>Label>Verse	*>Label>Verse	*>Label>Verse
1r	.	4r	.	1GMm	newline	voice	.	25.063	G:7
.	.	[4B [4d [4g	Hi	.	.	.	.	.	.
.	.	4B] 4d] 4g]	_	.	.	.	.	.	.
.	.	8A 8c 8e	de-	.	.	.	.	.	.
.	.	8G 8B 8d	-way!	.	.	.	.	.	.
=18	=18	=18	=18	=18	=18	=18	=18	=18	=18
6r	.	4r	.	1GMm	.	voice	.	26.647	G:7
6d	Got	.	.	.	.	.	.	.	.
.	.	8r	.	.	.	.	.	.	.
6B	my-	.	.	.	.	.	.	.	.
.	.	8B 8d	Woo,	.	.	.	.	.	.
8c	-self	4r	.	.	.	.	.	.	.
8B	a	.	.	.	.	.	.	.	.
16c	lit-	4B 4d	woo!	.	.	.	.	.	.
16B	-tle	.	.	.	.	.	.	.	.
[8d	job!	.	.	.	.	.	D	.	.
=19	=19	=19	=19	=19	=19	=19	=19	=19	=19
4d]	_	4r	.	1GMm	.	voice	.	28.23	G:7
4r	.	[4B [4d [4g	Hi	.	.	.	.	.	.
2r	.	4B] 4d] 4g]	_	.	.	.	.	.	.
.	.	8A 8c 8e	de-	.	.	.	.	.	.
.	.	8G 8B 8d	-way!	.	.	.	.	.	.
=20	=20	=20	=20	=20	=20	=20	=20	=20	=20
8r	.	4r	.	1GMm	.	voice	.	29.814	G:7
8G	I'm	.	.	.	.	.	.	.	.
8~B	gon'	8r	.	.	.	.	.	.	.
[8c	buy	8B 8d	Woo,	.	.	.	.	.	.
12c]	_	4r	.	.	.	.	.	.	.
12c	me	.	.	.	.	.	.	.	.
12~B	a	.	.	.	.	.	.	.	.
12c	lit-	4B 4d	woo!	.	.	.	.	.	.
12~B	-tle	.	.	.	.	.	.	.	.
[12d	car!	.	.	.	.	.	E	.	.
=21	=21	=21	=21	=21	=21	=21	=21	=21	=21
4d]	_	4r	.	1CMm	newline	voice	.	31.398	C:7
4r	.	[4B- [4d [4g	Hi	.	.	.	.	.	.
2r	.	4B-] 4d] 4g]	_	.	.	.	.	.	.
.	.	8A 8c 8e	de-	.	.	.	.	.	.
.	.	8G 8B- 8d	-way!	.	.	.	.	.	.
=22	=22	=22	=22	=22	=22	=22	=22	=22	=22
4r	.	4r	.	1CMm	.	voice	.	32.953	C:7
6c	Drive	8r	.	.	.	.	.	.	.
.	.	8B- 8d	Woo,	.	.	.	.	.	.
6c	my	.	.	.	.	.	.	.	.
.	.	4r	.	.	.	.	.	.	.
6c	girl	.	.	.	.	.	.	.	.
12c	in	4B- 4d	woo!	.	.	.	.	.	.
12c	the	.	.	.	.	.	.	.	.
12c	park!	.	.	.	.	.	E	.	.
=23	=23	=23	=23	=23	=23	=23	=23	=23	=23
4d	_	4r	.	1GMm	.	voice	.	34.509	G:7
4r	.	[4B [4d [4g	Hi	.	.	.	.	.	.
2r	.	4B] 4d] 4g]	_	.	.	.	.	.	.
.	.	8A 8c 8e	de-	.	.	.	.	.	.
.	.	8G 8B 8d	-way!	.	.	.	.	.	.
=24	=24	=24	=24	=24	=24	=24	=24	=24	=24
8r	.	4r	.	1GMm	.	voice	.	36.064	G:7
[8f#	Don't	.	.	.	.	.	.	.	.
8f#]	_	8r	.	.	.	.	.	.	.
16c	bo-	8B 8d	Woo,	.	.	.	.	.	.
16c	-ther	.	.	.	.	.	.	.	.
8~B	us,	4r	.	.	.	.	.	.	.
8c	leave	.	.	.	.	.	.	.	.
8~B	us	4B 4d	woo!	.	.	.	.	.	.
8c	'lone!	.	.	.	.	.	A	.	.
=25	=25	=25	=25	=25	=25	=25	=25	=25	=25
4d	_	4r	.	1DMm	newline	voice	.	37.62	D:7
4r	.	4B 4d 4f#	Woo,	.	.	.	.	.	.
2r	.	4B 4d 4f#	woo,	.	.	.	.	.	.
.	.	8B 8d 8f#	woo!	.	.	.	.	.	.
.	.	8A 8c 8e	_	.	.	.	.	.	.
=26	=26	=26	=26	=26	=26	=26	=26	=26	=26
8r	.	4r	.	1CMm	.	voice	.	39.167	C:7
16f	A-	.	.	.	.	.	.	.	.
16d	-ny-	.	.	.	.	.	.	.	.
8.c	-way,	8r	.	.	.	.	.	.	.
.	.	8B- 8d	Woo,	.	.	.	.	.	.
[16c	I'm	.	.	.	.	.	.	.	.
8c]	_	4r	.	.	.	.	.	.	.
[8c	al	.	.	.	.	.	.	.	.
16c]	_	4B- 4d	woo!	.	.	.	.	.	.
8.c	most	.	.	.	.	.	.	.	.
=27	=27	=27	=27	=27	=27	=27	=27	=27	=27
8c	grown!	4r	.	1GMm	.	voice	A	40.713	G:7
8d	_	.	.	.	.	.	.	.	.
4r	.	[4B [4d [4g	Hi	.	.	.	.	.	.
2r	.	4B] 4d] 4g]	_	.	.	.	.	.	.
.	.	4A 4c 4e	de-	.	.	.	.	.	.
=28	=28	=28	=28	=28	=28	=28	=28	=28	=28
1r	.	8G 8B 8d	-way,	1GMm	.	voice	.	42.26	G:7
.	.	8D 8B 8d	ta-	.	.	.	.	.	.
.	.	8D 8c 8d	-tack-	.	.	.	.	.	.
.	.	8D 8c 8d	-a-	.	.	.	.	.	.
.	.	8D 8c 8d	-tack-	.	.	.	.	.	.
.	.	8D 8c 8d	-a-	.	.	.	.	.	.
.	.	8D 8c 8d	-tack-	.	.	.	.	.	.
.	.	8D 8c 8d	-a...	.	.	.	.	.	.
=29	=29	=29	=29	=29	=29	=29	=29	=29	=29
*>Letter>B	*>Letter>B	*>Letter>B	*>Letter>B	*>Letter>B	*>Letter>B	*>Letter>B	*>Letter>B	*>Letter>B	*>Letter>B
*>Label>Solo	*>Label>Solo	*>Label>Solo	*>Label>Solo	*>Label>Solo	*>Label>Solo	*>Label>Solo	*>Label>Solo	*>Label>Solo	*>Label>Solo
1r	.	4r	.	1GMm	newline	piano	.	43.806	G:7
.	.	[4B [4d [4g	Hi	.	.	.	.	.	.
.	.	4B] 4d] 4g]	_	.	.	.	.	.	.
.	.	8A 8c 8e	de-	.	.	.	.	.	.
.	.	8G 8B 8d	-way!	.	.	.	.	.	.
=30	=30	=30	=30	=30	=30	=30	=30	=30	=30
1r	.	4r	.	1GMm	.	piano	.	45.372	G:7
.	.	8r	.	.	.	.	.	.	.
.	.	8B 8d	Woo,	.	.	.	.	.	.
.	.	4r	.	.	.	.	.	.	.
.	.	4B 4d	woo!	.	.	.	.	.	.
=31	=31	=31	=31	=31	=31	=31	=31	=31	=31
1r	.	4r	.	1GMm	.	piano	.	46.938	G:7
.	.	[4B [4d [4g	Hi	.	.	.	.	.	.
.	.	4B] 4d] 4g]	_	.	.	.	.	.	.
.	.	8A 8c 8e	de-	.	.	.	.	.	.
.	.	8G 8B 8d	-way!	.	.	.	.	.	.
=32	=32	=32	=32	=32	=32	=32	=32	=32	=32
1r	.	4r	.	1GMm	.	piano	.	48.504	G:7
.	.	8r	.	.	.	.	.	.	.
.	.	8B 8d	Woo,	.	.	.	.	.	.
.	.	4r	.	.	.	.	.	.	.
.	.	4B 4d	woo!	.	.	.	.	.	.
=33	=33	=33	=33	=33	=33	=33	=33	=33	=33
1r	.	4r	.	1CMm	newline	piano	.	50.069	C:7
.	.	[4B- [4d [4g	Hi	.	.	.	.	.	.
.	.	4B-] 4d] 4g]	_	.	.	.	.	.	.
.	.	8A 8c 8e	de-	.	.	.	.	.	.
.	.	8G 8B- 8d	-way!	.	.	.	.	.	.
=34	=34	=34	=34	=34	=34	=34	=34	=34	=34
4r	.	4r	.	1CMm	.	piano	.	51.66	C:7
8r	.	8r	.	.	.	.	.	.	.
8~ee	Oh!	8B- 8d	Woo,	.	.	.	.	.	.
2r	.	4r	.	.	.	.	.	.	.
.	.	4B- 4d	woo!	.	.	.	.	.	.
=35	=35	=35	=35	=35	=35	=35	=35	=35	=35
1r	.	4r	.	1GMm	.	piano	.	53.25	G:7
.	.	[4B [4d [4g	Hi	.	.	.	.	.	.
.	.	4B] 4d] 4g]	_	.	.	.	.	.	.
.	.	8A 8c 8e	de-	.	.	.	.	.	.
.	.	8G 8B 8d	-way!	.	.	.	.	.	.
=36	=36	=36	=36	=36	=36	=36	=36	=36	=36
4r	.	4r	.	1GMm	.	piano	.	54.84	G:7
8r	.	8r	.	.	.	.	.	.	.
8~a-	Woo!	8B 8d	Woo,	.	.	.	.	.	.
2r	.	4r	.	.	.	.	.	.	.
.	.	4B 4d	woo!	.	.	.	.	.	.
=37	=37	=37	=37	=37	=37	=37	=37	=37	=37
1r	.	4r	.	1DMm	newline	piano	.	56.431	D:7
.	.	4B 4d	Woo,	.	.	.	.	.	.
.	.	4B 4d 4f#	woo,	.	.	.	.	.	.
.	.	8B 8d 8f#	woo!	.	.	.	.	.	.
.	.	8A 8c 8e	_	.	.	.	.	.	.
=38	=38	=38	=38	=38	=38	=38	=38	=38	=38
1r	.	4r	.	1CMm	.	piano	.	58.012	C:7
.	.	8r	.	.	.	.	.	.	.
.	.	8B- 8d	Woo,	.	.	.	.	.	.
.	.	4r	.	.	.	.	.	.	.
.	.	4B- 4d	woo!	.	.	.	.	.	.
=39	=39	=39	=39	=39	=39	=39	=39	=39	=39
1r	.	4r	.	1GMm	.	piano	.	59.593	G:7
.	.	[4B [4d [4g	Hi	.	.	.	.	.	.
.	.	4B] 4d] 4g]	_	.	.	.	.	.	.
.	.	4A 4c 4e	de-	.	.	.	.	.	.
=40	=40	=40	=40	=40	=40	=40	=40	=40	=40
6r	.	4G 4B 4d	-way!	1GMm	.	piano	.	61.175	G:7
6c	Got	.	.	.	.	.	.	.	.
.	.	4r	.	.	.	.	.	.	.
6c	my	.	.	.	.	.	.	.	.
12c	eye	2r	.	.	.	.	.	.	.
12c	on	.	.	.	.	.	.	.	.
12B	a	.	.	.	.	.	.	.	.
12c	lit-	.	.	.	.	.	.	.	.
12B	-tle	.	.	.	.	.	.	.	.
12c	girl!	.	.	.	.	.	F	.	.
=41	=41	=41	=41	=41	=41	=41	=41	=41	=41
*>Letter>B	*>Letter>B	*>Letter>B	*>Letter>B	*>Letter>B	*>Letter>B	*>Letter>B	*>Letter>B	*>Letter>B	*>Letter>B
*>Label>Verse	*>Label>Verse	*>Label>Verse	*>Label>Verse	*>Label>Verse	*>Label>Verse	*>Label>Verse	*>Label>Verse	*>Label>Verse	*>Label>Verse
4d	_	4r	.	1GMm	newline	voice	.	62.756	G:7
4r	.	[4B [4d [4g	Hi	.	.	.	.	.	.
2r	.	4B] 4d] 4g]	_	.	.	.	.	.	.
.	.	8A 8c 8e	de-	.	.	.	.	.	.
.	.	8G 8B 8d	-way!	.	.	.	.	.	.
=42	=42	=42	=42	=42	=42	=42	=42	=42	=42
8r	.	4r	.	1GMm	.	voice	.	64.35	G:7
[8B	Ah,	.	.	.	.	.	.	.	.
4B]	_	8r	.	.	.	.	.	.	.
.	.	8B 8d	Woo,	.	.	.	.	.	.
8c	she's	4r	.	.	.	.	.	.	.
16c	real-	.	.	.	.	.	.	.	.
16c	-ly	.	.	.	.	.	.	.	.
8c	out	4B 4d	woo!	.	.	.	.	.	.
[8B	this	.	.	.	.	.	.	.	.
=43	=43	=43	=43	=43	=43	=43	=43	=43	=43
8B]	_	4r	.	1GMm	.	voice	.	65.944	G:7
16c	world!	.	.	.	.	.	F	.	.
[16d	_	.	.	.	.	.	.	.	.
4d]	_	[4B [4d [4g	Hi	.	.	.	.	.	.
2r	.	4B] 4d] 4g]	_	.	.	.	.	.	.
.	.	8A 8c 8e	de-	.	.	.	.	.	.
.	.	8G 8B 8d	-way!	.	.	.	.	.	.
=44	=44	=44	=44	=44	=44	=44	=44	=44	=44
4r	.	4r	.	1GMm	.	voice	.	67.538	G:7
12r	.	8r	.	.	.	.	.	.	.
12B	When	.	.	.	.	.	.	.	.
.	.	8B 8d	Woo,	.	.	.	.	.	.
[12B	I	.	.	.	.	.	.	.	.
8.B]	_	4r	.	.	.	.	.	.	.
16c	take	.	.	.	.	.	.	.	.
16~B	her	4B 4d	woo!	.	.	.	.	.	.
16c	to	.	.	.	.	.	.	.	.
8~B	a	.	.	.	.	.	.	.	.
=45	=45	=45	=45	=45	=45	=45	=45	=45	=45
16c	dance,	4r	.	1CMm	newline	voice	G	69.132	C:7
8.d	_	.	.	.	.	.	.	.	.
4r	.	[4B- [4d [4g	Hi	.	.	.	.	.	.
2r	.	4B-] 4d] 4g]	_	.	.	.	.	.	.
.	.	8A 8c 8e	de-	.	.	.	.	.	.
.	.	8G 8B- 8d	-way!	.	.	.	.	.	.
=46	=46	=46	=46	=46	=46	=46	=46	=46	=46
8r	.	4r	.	1CMm	.	voice	.	70.692	C:7
8c	she	.	.	.	.	.	.	.	.
16f#	stea-	8r	.	.	.	.	.	.	.
8d-	-dy	.	.	.	.	.	.	.	.
.	.	8B- 8d	Woo,	.	.	.	.	.	.
[16c	talk	.	.	.	.	.	.	.	.
16c]	_	4r	.	.	.	.	.	.	.
8B	a-	.	.	.	.	.	.	.	.
[16c	-bout	.	.	.	.	.	.	.	.
16c]	_	4B- 4d	woo!	.	.	.	.	.	.
8.B	ro-	.	.	.	.	.	.	.	.
=47	=47	=47	=47	=47	=47	=47	=47	=47	=47
16c	-mance!	4r	.	1GMm	.	voice	G	72.253	G:7
8.d	_	.	.	.	.	.	.	.	.
4r	.	[4B [4d [4g	Hi	.	.	.	.	.	.
2r	.	4B] 4d] 4g]	_	.	.	.	.	.	.
.	.	8A 8c 8e	de-	.	.	.	.	.	.
.	.	8G 8B 8d	-way!	.	.	.	.	.	.
=48	=48	=48	=48	=48	=48	=48	=48	=48	=48
8r	.	4r	.	1GMm	.	voice	.	73.813	G:7
[8f#	Don't	.	.	.	.	.	.	.	.
8.f#]	_	8r	.	.	.	.	.	.	.
.	.	8B 8d	Woo,	.	.	.	.	.	.
16~c	bo-	.	.	.	.	.	.	.	.
16c	-ther	4r	.	.	.	.	.	.	.
8~B	us,	.	.	.	.	.	.	.	.
8c	leave	.	.	.	.	.	.	.	.
.	.	4B 4d	woo!	.	.	.	.	.	.
16.~B	us	.	.	.	.	.	.	.	.
32c	'lone!	.	.	.	.	.	A	.	.
16r	.	.	.	.	.	.	.	.	.
=49	=49	=49	=49	=49	=49	=49	=49	=49	=49
4d	_	4r	.	1DMm	newline	voice	.	75.374	D:7
4r	.	4B 4d	Woo,	.	.	.	.	.	.
2r	.	4B 4d 4f#	woo,	.	.	.	.	.	.
.	.	8B 8d 8f#	woo!	.	.	.	.	.	.
.	.	8A 8c 8e	_	.	.	.	.	.	.
=50	=50	=50	=50	=50	=50	=50	=50	=50	=50
8r	.	4r	.	1CMm	.	voice	.	76.952	C:7
16f	A-	.	.	.	.	.	.	.	.
16d	-ny-	.	.	.	.	.	.	.	.
8.c	-way,	8r	.	.	.	.	.	.	.
.	.	8B- 8d	Woo,	.	.	.	.	.	.
[16c	we	.	.	.	.	.	.	.	.
8c]	_	4r	.	.	.	.	.	.	.
[8c	al	.	.	.	.	.	.	.	.
16c]	_	4B- 4d	woo!	.	.	.	.	.	.
8.c	most	.	.	.	.	.	.	.	.
=51	=51	=51	=51	=51	=51	=51	=51	=51	=51
8c	grown!	4r	.	1GMm	.	voice	A	78.531	G:7
8d	_	.	.	.	.	.	.	.	.
4r	.	[4B [4d [4g	Hi	.	.	.	.	.	.
2r	.	4B] 4d] 4g]	_	.	.	.	.	.	.
.	.	4A 4c 4e	de-	.	.	.	.	.	.
=52	=52	=52	=52	=52	=52	=52	=52	=52	=52
1r	.	8G 8B 8d	-way,	1GMm	.	voice	.	80.109	G:7
.	.	8D 8B 8d	ta-	.	.	.	.	.	.
.	.	8D 8c 8d	-tack-	.	.	.	.	.	.
.	.	8D 8c 8d	-a-	.	.	.	.	.	.
.	.	8D 8c 8d	-tack-	.	.	.	.	.	.
.	.	8D 8c 8d	-a-	.	.	.	.	.	.
.	.	8D 8c 8d	-tack-	.	.	.	.	.	.
.	.	8D 8c 8d	-a...	.	.	.	.	.	.
=53	=53	=53	=53	=53	=53	=53	=53	=53	=53
*>Letter>B	*>Letter>B	*>Letter>B	*>Letter>B	*>Letter>B	*>Letter>B	*>Letter>B	*>Letter>B	*>Letter>B	*>Letter>B
*>Label>Solo	*>Label>Solo	*>Label>Solo	*>Label>Solo	*>Label>Solo	*>Label>Solo	*>Label>Solo	*>Label>Solo	*>Label>Solo	*>Label>Solo
1r	.	4r	.	1GMm	newline	guitar	.	81.688	G:7
.	.	[4B [4d [4g	Hi	.	.	.	.	.	.
.	.	4B] 4d] 4g]	_	.	.	.	.	.	.
.	.	8A 8c 8e	de-	.	.	.	.	.	.
.	.	8G 8B 8d	-way!	.	.	.	.	.	.
=54	=54	=54	=54	=54	=54	=54	=54	=54	=54
1r	.	4r	.	1GMm	.	guitar	.	83.275	G:7
.	.	8r	.	.	.	.	.	.	.
.	.	8B 8d	Woo,	.	.	.	.	.	.
.	.	4r	.	.	.	.	.	.	.
.	.	4B 4d	woo!	.	.	.	.	.	.
=55	=55	=55	=55	=55	=55	=55	=55	=55	=55
1r	.	4r	.	1GMm	.	guitar	.	84.861	G:7
.	.	[4B [4d [4g	Hi	.	.	.	.	.	.
.	.	4B] 4d] 4g]	_	.	.	.	.	.	.
.	.	8A 8c 8e	de-	.	.	.	.	.	.
.	.	8G 8B 8d	-way!	.	.	.	.	.	.
=56	=56	=56	=56	=56	=56	=56	=56	=56	=56
1r	.	4r	.	1GMm	.	guitar	.	86.448	G:7
.	.	8r	.	.	.	.	.	.	.
.	.	8B 8d	Woo,	.	.	.	.	.	.
.	.	4r	.	.	.	.	.	.	.
.	.	4B 4d	woo!	.	.	.	.	.	.
=57	=57	=57	=57	=57	=57	=57	=57	=57	=57
1r	.	4r	.	1CMm	newline	guitar	.	88.035	C:7
.	.	[4B- [4d [4g	Hi	.	.	.	.	.	.
.	.	4B-] 4d] 4g]	_	.	.	.	.	.	.
.	.	8A 8c 8e	de-	.	.	.	.	.	.
.	.	8G 8B- 8d	-way!	.	.	.	.	.	.
=58	=58	=58	=58	=58	=58	=58	=58	=58	=58
1r	.	4r	.	1CMm	.	guitar	.	89.627	C:7
.	.	8r	.	.	.	.	.	.	.
.	.	8B- 8d	Woo,	.	.	.	.	.	.
.	.	4r	.	.	.	.	.	.	.
.	.	4B- 4d	woo!	.	.	.	.	.	.
=59	=59	=59	=59	=59	=59	=59	=59	=59	=59
1r	.	4r	.	1GMm	.	guitar	.	91.219	G:7
.	.	[4B [4d [4g	Hi	.	.	.	.	.	.
.	.	4B] 4d] 4g]	_	.	.	.	.	.	.
.	.	8A 8c 8e	de-	.	.	.	.	.	.
.	.	8G 8B 8d	-way!	.	.	.	.	.	.
=60	=60	=60	=60	=60	=60	=60	=60	=60	=60
1r	.	4r	.	1GMm	.	guitar	.	92.811	G:7
.	.	8r	.	.	.	.	.	.	.
.	.	8B 8d	Woo,	.	.	.	.	.	.
.	.	4r	.	.	.	.	.	.	.
.	.	4B 4d	woo!	.	.	.	.	.	.
=61	=61	=61	=61	=61	=61	=61	=61	=61	=61
1r	.	4r	.	1DMm	newline	guitar	.	94.403	D:7
.	.	4B 4d	Woo,	.	.	.	.	.	.
.	.	4B 4d 4f#	woo,	.	.	.	.	.	.
.	.	8B 8d 8f#	woo!	.	.	.	.	.	.
.	.	8A 8c 8e	_	.	.	.	.	.	.
=62	=62	=62	=62	=62	=62	=62	=62	=62	=62
1r	.	4r	.	1CMm	.	guitar	.	96.014	C:7
.	.	8r	.	.	.	.	.	.	.
.	.	8B- 8d	Woo,	.	.	.	.	.	.
.	.	4r	.	.	.	.	.	.	.
.	.	4B- 4d	woo!	.	.	.	.	.	.
=63	=63	=63	=63	=63	=63	=63	=63	=63	=63
1r	.	4r	.	1GMm	.	guitar	.	97.624	G:7
.	.	[4B [4d [4g	Hi	.	.	.	.	.	.
.	.	4B] 4d] 4g]	_	.	.	.	.	.	.
.	.	4A 4c 4e	de-	.	.	.	.	.	.
=64	=64	=64	=64	=64	=64	=64	=64	=64	=64
8r	.	4A 4c 4d	-way!	1GMm	.	guitar	.	99.235	G:7
8G	You	.	.	.	.	.	.	.	.
16G	know	4r	.	.	.	.	.	.	.
8B	I'm	.	.	.	.	.	.	.	.
16c	still	.	.	.	.	.	.	.	.
16c	li-	2r	.	.	.	.	.	.	.
16c	-vin'	.	.	.	.	.	.	.	.
8c	in	.	.	.	.	.	.	.	.
8c	town!	.	.	.	.	.	H	.	.
[8d	_	.	.	.	.	.	.	.	.
=65	=65	=65	=65	=65	=65	=65	=65	=65	=65
*>Letter>B	*>Letter>B	*>Letter>B	*>Letter>B	*>Letter>B	*>Letter>B	*>Letter>B	*>Letter>B	*>Letter>B	*>Letter>B
*>Label>Verse	*>Label>Verse	*>Label>Verse	*>Label>Verse	*>Label>Verse	*>Label>Verse	*>Label>Verse	*>Label>Verse	*>Label>Verse	*>Label>Verse
4d]	_	4r	.	1GMm	newline	voice	.	100.846	G:7
4r	.	[4B [4d [4g	Hi	.	.	.	.	.	.
2r	.	4B] 4d] 4g]	_	.	.	.	.	.	.
.	.	8A 8c 8e	de-	.	.	.	.	.	.
.	.	8G 8B 8d	-way!	.	.	.	.	.	.
=66	=66	=66	=66	=66	=66	=66	=66	=66	=66
8r	.	4r	.	1GMm	.	voice	.	102.438	G:7
16G	But	.	.	.	.	.	.	.	.
16G	I	.	.	.	.	.	.	.	.
8B	done	8r	.	.	.	.	.	.	.
8c	mar-	8B 8d	Woo,	.	.	.	.	.	.
8c	-ried	4r	.	.	.	.	.	.	.
8B	and	.	.	.	.	.	.	.	.
12c	set-	4B 4d	woo!	.	.	.	.	.	.
12B	-tled	.	.	.	.	.	.	.	.
12c	down!	.	.	.	.	.	H	.	.
=67	=67	=67	=67	=67	=67	=67	=67	=67	=67
4d	_	4r	.	1GMm	.	voice	.	104.03	G:7
4r	.	[4B [4d [4g	Hi	.	.	.	.	.	.
2r	.	4B] 4d] 4g]	_	.	.	.	.	.	.
.	.	8A 8c 8e	de-	.	.	.	.	.	.
.	.	8G 8B 8d	-way!	.	.	.	.	.	.
=68	=68	=68	=68	=68	=68	=68	=68	=68	=68
8r	.	4r	.	1GMm	.	voice	.	105.622	G:7
8c	Now	.	.	.	.	.	.	.	.
8d	I	8r	.	.	.	.	.	.	.
8~d	real-	8B 8d	Woo,	.	.	.	.	.	.
8~c	-ly	4r	.	.	.	.	.	.	.
8c	have	.	.	.	.	.	.	.	.
8B	a	4B 4d	woo!	.	.	.	.	.	.
8c	ball!	.	.	.	.	.	I	.	.
=69	=69	=69	=69	=69	=69	=69	=69	=69	=69
4d	_	4r	.	1CMm	newline	voice	.	107.214	C:7
4r	.	[4B- [4d [4g	Hi	.	.	.	.	.	.
2r	.	4B-] 4d] 4g]	_	.	.	.	.	.	.
.	.	8A 8c 8e	de-	.	.	.	.	.	.
.	.	8G 8B- 8d	-way!	.	.	.	.	.	.
=70	=70	=70	=70	=70	=70	=70	=70	=70	=70
8r	.	4r	.	1CMm	.	voice	.	108.821	C:7
16~d-	So	.	.	.	.	.	.	.	.
16~d-	I	.	.	.	.	.	.	.	.
8.c	don't	8r	.	.	.	.	.	.	.
.	.	8B- 8d	Woo,	.	.	.	.	.	.
[16c	browse	.	.	.	.	.	.	.	.
16c]	_	4r	.	.	.	.	.	.	.
16B-	a-	.	.	.	.	.	.	.	.
[8c	-round	.	.	.	.	.	.	.	.
8c]	_	4B- 4d	woo!	.	.	.	.	.	.
8B	at	.	.	.	.	.	.	.	.
=71	=71	=71	=71	=71	=71	=71	=71	=71	=71
16c	all!	4r	.	1GMm	.	voice	I	110.428	G:7
8.d	_	.	.	.	.	.	.	.	.
2.r	.	[4B [4d [4g	Hi	.	.	.	.	.	.
.	.	4B] 4d] 4g]	_	.	.	.	.	.	.
.	.	8A 8c 8e	de-	.	.	.	.	.	.
.	.	8G 8B 8d	-way!	.	.	.	.	.	.
=72	=72	=72	=72	=72	=72	=72	=72	=72	=72
8r	.	4r	.	1GMm	.	voice	.	112.036	G:7
[8f#	Don't	.	.	.	.	.	.	.	.
8f#]	_	8r	.	.	.	.	.	.	.
8~c	bo-	8B 8d	Woo,	.	.	.	.	.	.
8c	-ther	4r	.	.	.	.	.	.	.
8B	us,	.	.	.	.	.	.	.	.
8c	leave	4B 4d	woo!	.	.	.	.	.	.
8B	us	.	.	.	.	.	.	.	.
=73	=73	=73	=73	=73	=73	=73	=73	=73	=73
4d	'lone!	4r	.	1DMm	newline	voice	A	113.643	D:7
2.r	.	4B 4d 4f#	Woo,	.	.	.	.	.	.
.	.	4B 4d 4f#	woo,	.	.	.	.	.	.
.	.	8B 8d 8f#	woo!	.	.	.	.	.	.
.	.	8A 8c 8e	_	.	.	.	.	.	.
=74	=74	=74	=74	=74	=74	=74	=74	=74	=74
8r	.	4r	.	1CMm	.	voice	.	115.221	C:7
16f	A-	.	.	.	.	.	.	.	.
16d	-ny-	.	.	.	.	.	.	.	.
8.c	-way,	8r	.	.	.	.	.	.	.
.	.	8B- 8d	Woo,	.	.	.	.	.	.
[16c	we	.	.	.	.	.	.	.	.
8c]	_	4r	.	.	.	.	.	.	.
[8c	al	.	.	.	.	.	.	.	.
16c]	_	4B- 4d	woo!	.	.	.	.	.	.
8.c	most	.	.	.	.	.	.	.	.
=75	=75	=75	=75	=75	=75	=75	=75	=75	=75
8c	grown!	4r	.	1GMm	.	voice	A	116.8	G:7
8d	_	.	.	.	.	.	.	.	.
4r	.	[4B [4d [4g	Hi	.	.	.	.	.	.
2r	.	4B] 4d] 4g]	_	.	.	.	.	.	.
.	.	4A 4c 4e	de-	.	.	.	.	.	.
=76	=76	=76	=76	=76	=76	=76	=76	=76	=76
1r	.	8G 8B 8d	-way,	1GMm	.	voice	.	118.378	G:7
.	.	8D 8B 8d	ta-	.	.	.	.	.	.
.	.	8D 8c 8d	-tack-	.	.	.	.	.	.
.	.	8D 8c 8d	-a-	.	.	.	.	.	.
.	.	8D 8c 8d	-tack-	.	.	.	.	.	.
.	.	8D 8c 8d	-a-	.	.	.	.	.	.
.	.	8D 8c 8d	-tack-	.	.	.	.	.	.
.	.	8D 8c 8d	-a...	.	.	.	.	.	.
=77	=77	=77	=77	=77	=77	=77	=77	=77	=77
*>Letter>B	*>Letter>B	*>Letter>B	*>Letter>B	*>Letter>B	*>Letter>B	*>Letter>B	*>Letter>B	*>Letter>B	*>Letter>B
*>Label>Solo	*>Label>Solo	*>Label>Solo	*>Label>Solo	*>Label>Solo	*>Label>Solo	*>Label>Solo	*>Label>Solo	*>Label>Solo	*>Label>Solo
1r	.	4r	.	1GMm	newline	piano	.	119.956	G:7
.	.	[4B [4d [4g	Hi	.	.	.	.	.	.
.	.	4B] 4d] 4g]	_	.	.	.	.	.	.
.	.	8A 8c 8e	de-	.	.	.	.	.	.
.	.	8G 8B 8d	-way!	.	.	.	.	.	.
=78	=78	=78	=78	=78	=78	=78	=78	=78	=78
1r	.	4r	.	1GMm	.	piano	.	121.561	G:7
.	.	8r	.	.	.	.	.	.	.
.	.	8B 8d	Woo,	.	.	.	.	.	.
.	.	4r	.	.	.	.	.	.	.
.	.	4B 4d	woo!	.	.	.	.	.	.
=79	=79	=79	=79	=79	=79	=79	=79	=79	=79
1r	.	4r	.	1GMm	.	piano	.	123.166	G:7
.	.	[4B [4d [4g	Hi	.	.	.	.	.	.
.	.	4B] 4d] 4g]	_	.	.	.	.	.	.
.	.	8A 8c 8e	de-	.	.	.	.	.	.
.	.	8G 8B 8d	-way!	.	.	.	.	.	.
=80	=80	=80	=80	=80	=80	=80	=80	=80	=80
4r	.	4r	.	1GMm	.	piano	.	124.771	G:7
8r	.	8r	.	.	.	.	.	.	.
8dd	Oh!	8B 8d	Woo,	.	.	.	.	.	.
2r	.	4r	.	.	.	.	.	.	.
.	.	4B 4d	woo!	.	.	.	.	.	.
=81	=81	=81	=81	=81	=81	=81	=81	=81	=81
1r	.	4r	.	1CMm	newline	piano	.	126.376	C:7
.	.	[4B- [4d [4g	Hi	.	.	.	.	.	.
.	.	4B-] 4d] 4g]	_	.	.	.	.	.	.
.	.	8A 8c 8e	de-	.	.	.	.	.	.
.	.	8G 8B- 8d	-way!	.	.	.	.	.	.
=82	=82	=82	=82	=82	=82	=82	=82	=82	=82
1r	.	4r	.	1CMm	.	piano	.	127.953	C:7
.	.	8r	.	.	.	.	.	.	.
.	.	8B- 8d	Woo,	.	.	.	.	.	.
.	.	4r	.	.	.	.	.	.	.
.	.	4B- 4d	woo!	.	.	.	.	.	.
=83	=83	=83	=83	=83	=83	=83	=83	=83	=83
1r	.	4r	.	1GMm	.	piano	.	129.53	G:7
.	.	[4B [4d [4g	Hi	.	.	.	.	.	.
.	.	4B] 4d] 4g]	_	.	.	.	.	.	.
.	.	8A 8c 8e	de-	.	.	.	.	.	.
.	.	8G 8B 8d	-way!	.	.	.	.	.	.
=84	=84	=84	=84	=84	=84	=84	=84	=84	=84
1r	.	4r	.	1GMm	.	piano	.	131.107	G:7
.	.	8r	.	.	.	.	.	.	.
.	.	8B 8d	Woo,	.	.	.	.	.	.
.	.	4r	.	.	.	.	.	.	.
.	.	4B 4d	woo!	.	.	.	.	.	.
=85	=85	=85	=85	=85	=85	=85	=85	=85	=85
1r	.	4r	.	1DMm	newline	piano	.	132.684	D:7
.	.	4B 4d	Woo,	.	.	.	.	.	.
.	.	4B 4d 4f#	woo,	.	.	.	.	.	.
.	.	8B 8d 8f#	woo!	.	.	.	.	.	.
.	.	8A 8c 8e	_	.	.	.	.	.	.
=86	=86	=86	=86	=86	=86	=86	=86	=86	=86
1r	.	4r	.	1CMm	.	piano	.	134.175	C:7
.	.	8r	.	.	.	.	.	.	.
.	.	8B- 8d	Woo,	.	.	.	.	.	.
.	.	4r	.	.	.	.	.	.	.
.	.	4B- 4d	woo!	.	.	.	.	.	.
=87	=87	=87	=87	=87	=87	=87	=87	=87	=87
1r	.	4r	.	1GMm	.	piano	.	135.665	G:7
.	.	[4B [4d [4g	Hi	.	.	.	.	.	.
.	.	4B] 4d] 4g]	_	.	.	.	.	.	.
.	.	4A 4c 4e	de-	.	.	.	.	.	.
=88	=88	=88	=88	=88	=88	=88	=88	=88	=88
1r	.	4G 4B 4d	-way!	1GMm	.	piano	.	137.156	G:7
.	.	4r	.	.	.	.	.	.	.
.	.	2r	.	.	.	.	.	.	.
r;	.	r;	.	1r;	.	r	.	138.646	N.C.
r;	.	r;	.	1r;	.	r	.	141.27	N.C.
*-	*-	*-	*-	*-	*-	*-	*-	*-	*-
!!!BillboardChartDate: 1959/06/01
!!!BillboardPeak: 32
!!!BillboardWeeksOnChart: 12
!!!COC: Chuck Berry
!!!ENC: Nathaniel Condit-Schultz
!!!EST: Awating manual error checking and editing.
!!!OTL: Almost Grown
!!!RDF**chordsym: original McGill chord annotation + (implied pitch class set, with bass pitch in first position)
!!!RDF**harmony: **recip + pitch class of root + harmonic quality
!!!RDF**leadinstrument: original McGill primary instrumentation annotation
!!!RDF**phrase: newline = linebreak in original McGill transcription
!!!RDF**timestamp: McGill audio timestamp in seconds
!!!RDT: 2017/01/12/
!!!SampleActualRank: 40
!!!SampleID#: 0792
!!!SampleTargetRank: 38
